svgs/light/club.svg

<svg xmlns="http://www.w3.org/2000/svg" viewBox="0 0 512 512"><!-- Font Awesome Pro 6.0.0-alpha2 by @fontawesome - https://fontawesome.com License - https://fontawesome.com/license (Commercial License) --><path d="M374.459 176.156C380.518 161.273 384 145.061 384 128C384 57.307 326.693 0 256 0S128 57.307 128 128C128 145.061 131.482 161.273 137.541 176.156C60.014 175.295 0 237.852 0 312C0 387.109 60.889 448 136 448C178.125 448 215.211 428.467 240 398.297V480H176C167.164 480 160 487.162 160 496C160 504.836 167.164 512 176 512H336C344.836 512 352 504.836 352 496C352 487.162 344.836 480 336 480H272V398.297C296.789 428.467 333.875 448 376 448C451.111 448 512 387.109 512 312C512 237.783 451.912 175.295 374.459 176.156ZM376 416C337.611 416 302.49 394.49 284.344 359.865C278.799 349.291 267.939 342.723 256 342.723S233.199 349.293 227.656 359.867C209.51 394.49 174.389 415.998 136.002 415.998C75.326 415.998 35.607 366.977 32.266 319.518C27.881 257.279 77.953 208.385 134.162 208.006C135.455 208.172 161.377 208.418 161.436 208.418C172.834 208.418 180.516 196.854 176.256 186.385C169.281 169.252 160 151.4 160 128C160 75.064 203.066 32 256 32C308.936 32 352 75.064 352 128C352 151.971 343.146 168.203 335.746 186.385C331.455 196.922 339.246 208.418 350.564 208.418C350.623 208.418 350.682 208.418 350.74 208.416C378.738 208.094 377.568 208.018 377.621 208.014C428.969 208.816 484.486 252.318 479.734 319.549C476.367 367.135 436.402 416 376 416Z"/></svg>

<svg xmlns="http://www.w3.org/2000/svg" viewBox="0 0 512 512"><!--! Font Awesome Pro 6.0.0-alpha3 by @fontawesome - https://fontawesome.com License - https://fontawesome.com/license (Commercial License) --><path d="M374.5 176.2C380.5 161.3 384 145.1 384 128c0-70.69-57.31-128-128-128S128 57.31 128 128c0 17.06 3.482 33.27 9.541 48.16C60.01 175.3 0 237.9 0 312C0 387.1 60.89 448 136 448c42.13 0 79.21-19.53 104-49.7V480h-64C167.2 480 160 487.2 160 496C160 504.8 167.2 512 176 512h160c8.836 0 16-7.164 16-16c0-8.838-7.164-16-16-16h-64v-81.7C296.8 428.5 333.9 448 376 448C451.1 448 512 387.1 512 312C512 237.8 451.9 175.3 374.5 176.2zM376 416c-38.39 0-73.51-21.51-91.66-56.13C278.8 349.3 267.9 342.8 256 342.8s-22.8 6.51-28.34 17.08C209.5 394.5 174.4 415.1 136 415.1c-60.68 0-100.4-49.02-103.7-96.48C27.88 257.3 77.95 208.4 134.2 208c1.293 .166 27.21 .4121 27.27 .4121c11.4 0 19.08-11.56 14.82-22.03C169.3 169.3 160 151.4 160 128c0-52.94 43.07-96 96-96c52.94 0 96 43.06 96 96c0 23.97-8.854 40.2-16.25 58.38C331.5 196.9 339.3 208.4 350.7 208.4c.0586 0-.0586 .002 0 0c27.1-.3223 26.92-.3994 26.97-.4033c51.35 .8027 106.9 44.3 102.1 111.5C476.4 367.1 436.4 416 376 416z"/></svg>
